src/icons/hds/ui/face-sad.svg

<svg xmlns="http://www.w3.org/2000/svg" width="24" height="24" viewBox="0 0 24 24">
  <g fill="none" fill-rule="evenodd">
    <rect width="24" height="24"/>
    <path fill="currentColor" d="M12,2 C17.5228475,2 22,6.4771525 22,12 C22,17.5228475 17.5228475,22 12,22 C6.4771525,22 2,17.5228475 2,12 C2,6.4771525 6.4771525,2 12,2 Z M12,4 C7.581722,4 4,7.581722 4,12 C4,16.418278 7.581722,20 12,20 C16.418278,20 20,16.418278 20,12 C20,7.581722 16.418278,4 12,4 Z M12.0054155,13 C14.0161502,13 15.8308234,14.0998268 16.7845329,15.8220574 L16.8948029,16.0316821 L15.1051971,16.9246048 L15.0426223,16.8049909 C14.4387557,15.7027346 13.2845748,15 12.0054155,15 C10.7439076,15 9.60422232,15.6835305 8.9939614,16.7587903 L8.89722321,16.9415773 L7.10277679,16.0584227 L7.17312284,15.9204096 C8.11103635,14.1424248 9.95612163,13 12.0054155,13 Z M8.5,8 C9.32842712,8 10,8.67157288 10,9.5 C10,10.3284271 9.32842712,11 8.5,11 C7.67157288,11 7,10.3284271 7,9.5 C7,8.67157288 7.67157288,8 8.5,8 Z M15.5,8 C16.3284271,8 17,8.67157288 17,9.5 C17,10.3284271 16.3284271,11 15.5,11 C14.6715729,11 14,10.3284271 14,9.5 C14,8.67157288 14.6715729,8 15.5,8 Z"/>
  </g>
</svg>

<svg viewBox="0 0 24 24" role="img" xmlns="http://www.w3.org/2000/svg"><g fill="none" fill-rule="evenodd"><path d="M0 0h24v24H0z"/><path d="M12 2c5.523 0 10 4.477 10 10s-4.477 10-10 10S2 17.523 2 12 6.477 2 12 2zm0 2a8 8 0 100 16 8 8 0 000-16zm.005 9a5.46 5.46 0 014.78 2.822l.11.21-1.79.893-.062-.12A3.461 3.461 0 0012.005 15a3.461 3.461 0 00-3.011 1.759l-.097.183-1.794-.884.07-.138A5.462 5.462 0 0112.005 13zM8.5 8a1.5 1.5 0 110 3 1.5 1.5 0 010-3zm7 0a1.5 1.5 0 110 3 1.5 1.5 0 010-3z" fill="currentColor"/></g></svg>
